X: 10064
T: MARION'S WALTZ
C: Bob McQuillen 4 Nov 93
B: Bob's Note Book 10 #64
%R: waltz
Z: 2020 John Chambers <jc:trillian.mit.edu>
M: 3/4
L: 1/4
K: A
cB \
| "A"A2c | e2a/g/ | "D"fga | "A"e2A/B/ | ce>f | "F#m"ecA | "D6"B3- | "E7"BcB |\
| "A"A2c | e2a/g/ | "D"fga | "A"e2A/B/ | c2d | "E7"c2B | "D"A3- | A :|
|: ag \
| "D"f>ga | "A"e2c | "D"def | "A"e2a/g/ | "D"f>ga | "A(F#m)"edc | "A(D6)"c3 | "E7"B2A/B/ |\
| "A"cBc | "E7"d>cd | "A"eae | "D"f>ga | "A"ecd | "E7"c2B | "A"A3- | A :|
%%begintext align
%% Marion Stiles is a real nice
%% lady who lives in Concord, NH, and I am greatly in her debt, because
%% what she did was she gave Deanna Stiles to the world, and then Deanna
%% gave Amelia to the world, and where in the world would we be
%% without either one? So thanks loads, Marion, for contributing
%% so much to our happiness. We sure are much obliged to you!
%%endtext

%%sep 1 1 500

%%sep 1 1 500

